X: 15848
T: Gortnatubrid, The
R: polka
M: 2/4
K: Bminor
f>e|:dB {B}cA|Bc de|{a}fd ed|{d}cA {e}f>e|
dB {B}cA|Bc de|{a}fd ec|1 B2 {a}f>e:|2 B2 B2||
|:~f2 ba|fe {e}f>e|dB {d}cA|Bc de|
fb ag|{a}fe {e}f>e|dB {d}cA|1 B2 B2:|2 B2||

